styles/4/Numix/256/places/red-folder-open.svg

<?xml version="1.0" encoding="UTF-8" standalone="no"?>
<!-- Created with Inkscape (http://www.inkscape.org/) -->

<svg
   xmlns:dc="http://purl.org/dc/elements/1.1/"
   xmlns:cc="http://creativecommons.org/ns#"
   xmlns:rdf="http://www.w3.org/1999/02/22-rdf-syntax-ns#"
   xmlns:svg="http://www.w3.org/2000/svg"
   xmlns="http://www.w3.org/2000/svg"
   xmlns:sodipodi="http://sodipodi.sourceforge.net/DTD/sodipodi-0.dtd"
   xmlns:inkscape="http://www.inkscape.org/namespaces/inkscape"
   width="256"
   height="256"
   id="svg2"
   version="1.1"
   inkscape:version="0.91 r"
   sodipodi:docname="red-folder-open.svg"
   inkscape:export-filename="/media/Data/Main/Visuals/Icons/Numix/Desktop/repos/numix-wiki/Gjorgi/Numix-folders/48/New/folder-144.png"
   inkscape:export-xdpi="270"
   inkscape:export-ydpi="270">
  <defs
     id="defs4" />
  <sodipodi:namedview
     id="base"
     pagecolor="#ffffff"
     bordercolor="#666666"
     borderopacity="1.0"
     inkscape:pageopacity="0.0"
     inkscape:pageshadow="2"
     inkscape:zoom="6.3958008"
     inkscape:cx="-7.8232698"
     inkscape:cy="186.32006"
     inkscape:document-units="px"
     inkscape:current-layer="layer1"
     showgrid="true"
     inkscape:window-width="1920"
     inkscape:window-height="1023"
     inkscape:window-x="0"
     inkscape:window-y="28"
     inkscape:window-maximized="1"
     showguides="true"
     inkscape:guide-bbox="true">
    <inkscape:grid
       type="xygrid"
       id="grid2985"
       empspacing="5"
       visible="true"
       enabled="true"
       snapvisiblegridlinesonly="true" />
  </sodipodi:namedview>
  <metadata
     id="metadata7">
    <rdf:RDF>
      <cc:Work
         rdf:about="">
        <dc:format>image/svg+xml</dc:format>
        <dc:type
           rdf:resource="http://purl.org/dc/dcmitype/StillImage" />
        <dc:title />
      </cc:Work>
    </rdf:RDF>
  </metadata>
  <g
     inkscape:label="Layer 1"
     inkscape:groupmode="layer"
     id="layer1"
     transform="translate(0,-796.3622)">
    <path
       style="fill:#d32f2f;fill-opacity:1;stroke:none"
       d="m 224,906.36224 -188,0 c -8,0 -12,-1.00591 -12,-9.00478 l 0,-74.0023 c 0,-4.43137 3.7896,-6.99292 8,-6.99292 l 192,0 c 4.2104,0 8,3.56766 8,7.99903 l 0,82.00097 z"
       id="path3811"
       inkscape:connector-curvature="0"
       sodipodi:nodetypes="csssssscc" />
    <rect
       style="fill:#ef5350;fill-opacity:1;stroke:none"
       id="rect2990-7"
       width="240"
       height="140"
       x="8"
       y="892.36218"
       rx="16"
       ry="14" />
    <path
       inkscape:connector-curvature="0"
       style="opacity:0.1;fill:#ffffff;fill-opacity:1;stroke:none"
       d="m 24,892.36226 c -8.864,0 -16,6.244 -16,14 l 0,4 c 0,-7.756 7.136,-14 16,-14 l 208,0 c 8.864,0 16,6.244 16,14 l 0,-4 c 0,-7.756 -7.136,-14 -16,-14 l -208,0 z"
       id="rect2994" />
    <path
       style="fill:#000000;fill-opacity:1;stroke:none;opacity:0.05"
       d="M 32 20 C 27.7896 20 24 22.56863 24 27 L 24 33 C 24 28.56863 27.7896 26 32 26 L 224 26 C 228.2104 26 232 29.56863 232 34 L 232 28 C 232 23.56863 228.2104 20 224 20 L 32 20 z "
       transform="translate(0,796.3622)"
       id="path2986" />
  </g>
</svg>

<!-- Created with Inkscape (http://www.inkscape.org/) -->
<svg xmlns="http://www.w3.org/2000/svg" viewBox="0 0 256 256">
 <g transform="translate(0,-796.3622)">
  <path d="m 224 906.36 -188 0 c -8 0 -12 -1.01 -12 -9 l 0 -74 c 0 -4.431 3.79 -6.993 8 -6.993 l 192 0 c 4.21 0 8 3.568 8 7.999 l 0 82 z" style="fill:#d32f2f;fill-opacity:1;stroke:none"/>
  <rect width="240" height="140" x="8" y="892.36" rx="16" ry="14" style="fill:#ef5350;fill-opacity:1;stroke:none"/>
  <path d="m 24 892.36 c -8.864 0 -16 6.244 -16 14 l 0 4 c 0 -7.756 7.136 -14 16 -14 l 208 0 c 8.864 0 16 6.244 16 14 l 0 -4 c 0 -7.756 -7.136 -14 -16 -14 l -208 0 z" style="fill:#fff;opacity:0.1;fill-opacity:1;stroke:none"/>
  <path d="m 32 20 c -4.21 0 -8 2.569 -8 7 l 0 6 c 0 -4.431 3.79 -7 8 -7 l 192 0 c 4.21 0 8 3.569 8 8 l 0 -6 c 0 -4.431 -3.79 -8 -8 -8 l -192 0 z" transform="translate(0,796.3622)" style="fill:#000;opacity:0.05;fill-opacity:1;stroke:none"/>
 </g>
</svg>
